!!! OTL: Berkowitz598
!!! Chapter: 1
!!! Section: V
!!! Page: 152
!!! Mode: 
!!! Encoder: AR
**kern
*staff1
=1-
!!pagebreak:original
*clefG2
*k[]
*C:
*M4/4
8d/L
8d#/
8e/
8f/J
8b/L
8a/J
4cc\
=2
8dn/L
8d#/
8e/
8f/J
8cc\L
8a\J
4cc#\
=3
8ddn\L
8b\J
4f#/
8dd\L
8cc#\J
4g/
=4
8dd/L
8b/
8fn/
8b-/J
8e-/L
8a-/
8g/
8f#/J
=5
!!linebreak:original
8dn/L
8d#/
8en/
8fn/J
8b-/L
8a-/J
4bn\
=6
8cc/L
8cc#/
8an/
8g/J
8b-/L
8f#/J
4e/
=7
8e-/L
8en/
8fn/
8f#/J
8cn/L
8f#/
8g/
8a-/J
=8
8dd-\L
8cc\
8g\
8b\J
8b-/L
8fn/J
4e/
==
*-
